X:12
T:Election. WR1776.12, The
B:Wm.Randall CDs 1776
Z:vmp.Steve Mansfield 2015
M:C
L:1/4
W:Turn your Part: round with your right hand
W:cast off turn round with your left hand
W:cast off another Cu. lead up to the top [...]
N:Final two words of dance illegible on scan of Mss
Q:2/4=100
K:D
D2 FA | df af | ge dc | df Ad |
D2 FA | df af | ec Ac | d2 D2 :|
A2 ce | ge fd | ge fd | ec BA |
d2 af | dc A=c | Bg ec | d2 D2 :|

